src/css/fonts/SVGs/iota_icons/streams_icon.svg

<svg width="48" height="48" viewBox="0 0 48 48" fill="none" xmlns="http://www.w3.org/2000/svg">
<path d="M23.5375 8C24.0628 8 24.4886 8.42585 24.4886 8.95117L24.4887 37.7382C24.4887 38.7259 24.0628 39.2197 23.5375 39.2197C23.0122 39.2197 22.5863 38.7259 22.5863 37.7382L22.5863 8.95117C22.5863 8.42585 23.0122 8 23.5375 8Z" fill="black"/>
<path d="M39.1937 16.5818C39.0031 16.0923 38.4517 15.85 37.9622 16.0406L38.3074 16.927C37.9622 16.0406 37.9611 16.0411 37.9611 16.0411L37.9598 16.0416L37.9568 16.0427L37.949 16.0459L37.9258 16.0553C37.9072 16.0629 37.8822 16.0734 37.8512 16.0869C37.7892 16.1139 37.7033 16.1527 37.597 16.2045C37.3844 16.308 37.0891 16.4636 36.7388 16.6797C36.0392 17.1112 35.1141 17.7877 34.1905 18.7772C32.3288 20.7719 30.5132 23.999 30.5132 28.9256V32.3061C30.5132 32.3419 30.513 32.3808 30.5128 32.4221C30.5099 32.9885 30.5048 34.0177 30.965 33.7876C31.4588 33.5407 32.1996 32.553 32.1996 30.3308V28.9256C32.1996 24.5187 34.0214 21.7464 35.5812 20.0752C36.3684 19.2318 37.1541 18.6586 37.7375 18.2988C38.0288 18.1191 38.2681 17.9936 38.4297 17.9149C38.5105 17.8756 38.5716 17.8481 38.6099 17.8314C38.629 17.8231 38.6424 17.8175 38.6497 17.8145L38.6558 17.812C39.1431 17.6203 39.3839 17.0702 39.1937 16.5818Z" fill="black"/>
<path d="M9.29857 16.0749C8.80907 15.8842 8.2577 16.1265 8.06706 16.616C7.87682 17.1044 8.11764 17.6545 8.60502 17.8463L8.61108 17.8487C8.61833 17.8517 8.63173 17.8573 8.65087 17.8657C8.68915 17.8823 8.75029 17.9098 8.83104 17.9491C8.99265 18.0278 9.23199 18.1534 9.52328 18.333C10.1067 18.6929 10.8923 19.266 11.6795 20.1094C13.2393 21.7807 14.9156 24.553 14.9156 28.9598V30.365C14.9156 32.5873 15.8019 33.5749 16.2958 33.8218C16.756 34.052 16.7508 33.0227 16.748 32.4564C16.7478 32.4151 16.7476 32.3761 16.7476 32.3404V28.9598C16.7476 24.0332 14.932 20.8062 13.0703 18.8114C12.1467 17.8219 11.2216 17.1454 10.5219 16.7139C10.1717 16.4979 9.87641 16.3423 9.6638 16.2388C9.55743 16.187 9.47155 16.1481 9.4096 16.1212C9.37861 16.1077 9.35358 16.0972 9.33494 16.0895L9.31182 16.0801L9.30394 16.077L9.30094 16.0758L9.29968 16.0753C9.29968 16.0753 9.29857 16.0749 8.95348 16.961L9.29857 16.0749Z" fill="black"/>
<path d="M32.8462 12.0616C32.4841 11.6809 31.8611 11.6861 31.4805 12.0482C31.4407 12.0876 31.4354 12.0908 31.4322 12.0928L31.4317 12.093C31.4269 12.096 31.4229 12.1004 31.2959 12.2396L31.2636 12.2751C31.1261 12.4257 30.9363 12.6451 30.7118 12.9346C30.2628 13.5135 29.6746 14.3731 29.0898 15.5227C27.9182 17.8259 26.767 21.28 26.767 25.9462C26.767 27.3021 26.7836 29.6363 26.8001 31.6281C26.8083 32.6247 26.8166 33.5368 26.8228 34.1998L26.8331 36.2568C26.8337 36.3157 26.8334 36.3752 26.8332 36.434C26.8309 36.8995 26.8288 37.3308 27.2608 37.2444C28.4954 36.9975 28.7251 35.0222 28.7251 33.5407C28.7224 33.2593 28.7194 33.0487 28.7162 32.8232L28.7162 32.8223C28.7118 32.5172 28.7071 32.1846 28.7024 31.6123C28.6858 29.6193 28.6693 27.293 28.6693 25.9462C28.6693 21.6053 29.7376 18.4449 30.7853 16.3853C31.3102 15.3535 31.8317 14.5947 32.215 14.1005C32.4066 13.8534 32.5636 13.6726 32.6689 13.5572C32.7164 13.5051 32.7645 13.4533 32.8149 13.404C33.1932 13.0417 33.2074 12.4414 32.8462 12.0616Z" fill="black"/>
<path d="M15.7584 12.0279C15.3778 11.6659 14.7757 11.6809 14.4136 12.0616C14.0524 12.4414 14.0666 13.0417 14.4449 13.404L14.4485 13.4075C14.453 13.412 14.4615 13.4204 14.4739 13.433C14.4985 13.4581 14.5382 13.4995 14.5909 13.5572C14.6962 13.6726 14.8532 13.8534 15.0448 14.1005C15.4281 14.5947 15.9496 15.3535 16.4745 16.3853C17.5222 18.4449 18.5905 21.6053 18.5905 25.9462C18.5905 27.2929 18.574 29.6193 18.5574 31.6123C18.5527 32.1846 18.548 32.5172 18.5436 32.8224C18.5404 33.0482 18.5374 33.259 18.5347 33.5407C18.5347 35.0222 18.7644 36.9975 19.999 37.2444C20.431 37.3308 20.4289 36.8994 20.4266 36.434C20.4264 36.3751 20.4261 36.3157 20.4267 36.2568L20.437 34.1997C20.4432 33.5368 20.4515 32.6247 20.4597 31.6281C20.4762 29.6363 20.4928 27.3021 20.4928 25.9462C20.4928 21.28 19.3417 17.8259 18.17 15.5227C17.5852 14.3731 16.997 13.5135 16.548 12.9346C16.3235 12.6451 16.1337 12.4257 15.9963 12.275C15.9275 12.1997 15.8719 12.1416 15.8315 12.1004C15.8113 12.0799 15.795 12.0636 15.7827 12.0515L15.7674 12.0365L15.7621 12.0314L15.76 12.0295L15.7592 12.0286C15.7592 12.0286 15.7584 12.0279 15.1028 12.7171L15.7584 12.0279Z" fill="black"/>
</svg>

<svg xmlns="http://www.w3.org/2000/svg" viewBox="0 0 48 48">
  <path d="M23.538 8a.95.95 0 0 1 .95.951v28.787c0 .988-.425 1.482-.95 1.482-.526 0-.952-.494-.952-1.482V8.951c0-.525.426-.951.952-.951Zm15.656 8.582a.951.951 0 0 0-1.232-.541l.345.886-.346-.886h-.001l-.003.002-.008.003-.023.01a6.57 6.57 0 0 0-.329.15 9.385 9.385 0 0 0-.858.474 12.43 12.43 0 0 0-2.548 2.097c-1.862 1.995-3.678 5.222-3.678 10.149v3.496c-.003.567-.008 1.596.452 1.366.494-.247 1.235-1.235 1.235-3.457v-1.405c0-4.407 1.821-7.18 3.381-8.85a10.558 10.558 0 0 1 2.156-1.777 8.026 8.026 0 0 1 .873-.468l.04-.017.006-.002a.951.951 0 0 0 .538-1.23Zm-29.895-.507a.951.951 0 0 0-.694 1.771l.006.003.04.017a7.93 7.93 0 0 1 .872.467c.584.36 1.37.933 2.157 1.776 1.56 1.672 3.236 4.444 3.236 8.85v1.406c0 2.222.886 3.21 1.38 3.457.46.23.455-.8.452-1.366V28.96c0-4.927-1.816-8.154-3.678-10.149a12.46 12.46 0 0 0-2.548-2.097 9.918 9.918 0 0 0-1.112-.593 4.215 4.215 0 0 0-.075-.031l-.023-.01-.008-.003-.003-.001H9.3s-.001-.001-.347.885l.346-.886Zm23.547-4.013c-.362-.381-.985-.376-1.365-.014-.04.04-.046.043-.049.045-.005.003-.01.007-.136.147l-.032.035c-.138.15-.328.37-.552.66a16.27 16.27 0 0 0-1.622 2.588c-1.172 2.303-2.323 5.757-2.323 10.423 0 1.356.017 3.69.033 5.682l.023 2.572.01 2.057v.177c-.002.466-.004.897.428.81 1.234-.246 1.464-2.222 1.464-3.703l-.009-.718c-.004-.306-.009-.638-.014-1.21a868.76 868.76 0 0 1-.033-5.667c0-4.34 1.069-7.501 2.116-9.56a14.376 14.376 0 0 1 1.43-2.285c.192-.248.349-.428.454-.544.047-.052.096-.104.146-.153a.951.951 0 0 0 .031-1.342Zm-17.088-.034a.951.951 0 0 0-1.313 1.376l.003.004.026.025c.024.025.064.066.117.124a9.4 9.4 0 0 1 .454.543c.383.495.905 1.254 1.43 2.285 1.047 2.06 2.115 5.22 2.115 9.561a828.4 828.4 0 0 1-.046 6.876l-.01.719c0 1.481.23 3.457 1.465 3.703.432.087.43-.345.428-.81v-.177l.01-2.057.023-2.572c.016-1.992.033-4.326.033-5.682 0-4.666-1.151-8.12-2.323-10.423a16.27 16.27 0 0 0-1.622-2.588 10.865 10.865 0 0 0-.716-.835 4.582 4.582 0 0 0-.05-.048l-.015-.015-.005-.006-.002-.002s-.002-.001-.657.688l.655-.69Z"/>
</svg>
